lib/icons/eye.svg

<svg width="16" height="10" viewBox="0 0 16 10" fill="none" xmlns="http://www.w3.org/2000/svg">
<path fill-rule="evenodd" clip-rule="evenodd" d="M4.69184 7.59747C3.60591 6.83732 2.57109 5.88122 1.82289 5C2.57109 4.11878 3.60591 3.16268 4.69184 2.40253C5.92611 1.53853 7.12435 1 7.99805 1C8.87175 1 10.07 1.53853 11.3043 2.40253C12.3902 3.16268 13.425 4.11878 14.1732 5C13.425 5.88122 12.3902 6.83732 11.3043 7.59747C10.07 8.46147 8.87175 9 7.99805 9C7.12435 9 5.92611 8.46147 4.69184 7.59747ZM7.99805 0C6.76648 0 5.33314 0.711467 4.06742 1.59747C2.77796 2.50009 1.55656 3.65921 0.734889 4.7L0.498047 5L0.734889 5.3C1.55656 6.34079 2.77796 7.49991 4.06742 8.40253C5.33314 9.28853 6.76648 10 7.99805 10C9.22961 10 10.663 9.28853 11.9287 8.40253C13.2181 7.49991 14.4395 6.34079 15.2612 5.3L15.498 5L15.2612 4.7C14.4395 3.65921 13.2181 2.50009 11.9287 1.59747C10.663 0.711467 9.22961 0 7.99805 0ZM6.4191 5C6.4191 4.17157 7.12602 3.5 7.99805 3.5C8.87008 3.5 9.57699 4.17157 9.57699 5C9.57699 5.82843 8.87008 6.5 7.99805 6.5C7.12602 6.5 6.4191 5.82843 6.4191 5ZM7.99805 2.5C6.54467 2.5 5.36647 3.61929 5.36647 5C5.36647 6.38071 6.54467 7.5 7.99805 7.5C9.45143 7.5 10.6296 6.38071 10.6296 5C10.6296 3.61929 9.45143 2.5 7.99805 2.5Z" fill="#7A859E"/>
</svg>

<svg width="16" height="10" fill="none" xmlns="http://www.w3.org/2000/svg"><path fill-rule="evenodd" clip-rule="evenodd" d="M4.692 7.597A15.82 15.82 0 0 1 1.822 5a15.82 15.82 0 0 1 2.87-2.597C5.926 1.539 7.124 1 7.998 1c.874 0 2.072.539 3.306 1.403 1.086.76 2.121 1.716 2.87 2.597a15.821 15.821 0 0 1-2.87 2.597C10.07 8.461 8.872 9 7.998 9c-.874 0-2.072-.539-3.306-1.403ZM7.998 0c-1.232 0-2.665.711-3.93 1.597C2.777 2.5 1.556 3.66.734 4.7L.498 5l.237.3c.822 1.04 2.043 2.2 3.332 3.103C5.333 9.289 6.767 10 7.998 10c1.232 0 2.665-.711 3.93-1.597C13.219 7.5 14.44 6.34 15.262 5.3l.237-.3-.237-.3c-.821-1.04-2.043-2.2-3.332-3.103C10.663.711 9.229 0 7.998 0ZM6.42 5c0-.828.707-1.5 1.58-1.5.871 0 1.578.672 1.578 1.5S8.87 6.5 7.998 6.5 6.42 5.828 6.42 5ZM8 2.5C6.544 2.5 5.365 3.62 5.365 5s1.179 2.5 2.632 2.5S10.63 6.38 10.63 5 9.45 2.5 7.998 2.5Z" fill="#7A859E"/></svg>
